humanity-icon-theme/Humanity/actions/64/edit-delete.svg

<?xml version="1.0" encoding="UTF-8" standalone="no"?>
<!-- Created with Inkscape (http://www.inkscape.org/) -->

<svg
   xmlns:dc="http://purl.org/dc/elements/1.1/"
   xmlns:cc="http://creativecommons.org/ns#"
   xmlns:rdf="http://www.w3.org/1999/02/22-rdf-syntax-ns#"
   xmlns:svg="http://www.w3.org/2000/svg"
   xmlns="http://www.w3.org/2000/svg"
   xmlns:xlink="http://www.w3.org/1999/xlink"
   xmlns:sodipodi="http://sodipodi.sourceforge.net/DTD/sodipodi-0.dtd"
   xmlns:inkscape="http://www.inkscape.org/namespaces/inkscape"
   width="64px"
   height="64px"
   id="svg3809"
   version="1.1"
   inkscape:version="0.48.0 r9654"
   sodipodi:docname="edit-delete.svg">
  <defs
     id="defs3811">
    <linearGradient
       y2="5.4675598"
       x2="63.397362"
       y1="-12.489107"
       x1="63.397362"
       gradientTransform="matrix(2.1153734,0,0,-2.1153253,-99.57708,26.573441)"
       gradientUnits="userSpaceOnUse"
       id="linearGradient3726"
       xlink:href="#linearGradient4873-2-7"
       inkscape:collect="always" />
    <linearGradient
       id="linearGradient4873-2-7">
      <stop
         id="stop4875-7-7"
         style="stop-color:#ffffff;stop-opacity:1"
         offset="0" />
      <stop
         id="stop4877-6-7"
         style="stop-color:#ffffff;stop-opacity:0"
         offset="1" />
    </linearGradient>
    <linearGradient
       inkscape:collect="always"
       xlink:href="#linearGradient3781"
       id="linearGradient3755"
       gradientUnits="userSpaceOnUse"
       gradientTransform="matrix(1.307717,0,0,1.307717,0.61479467,1.1391357)"
       x1="24.481066"
       y1="5.0808945"
       x2="24.481066"
       y2="45.074459" />
    <linearGradient
       id="linearGradient3781">
      <stop
         offset="0"
         style="stop-color:#ffffff;stop-opacity:1"
         id="stop3783" />
      <stop
         offset="1"
         style="stop-color:#ffffff;stop-opacity:0"
         id="stop3785" />
    </linearGradient>
    <radialGradient
       inkscape:collect="always"
       xlink:href="#linearGradient3242"
       id="radialGradient3749"
       gradientUnits="userSpaceOnUse"
       gradientTransform="matrix(0,2.9913581,-3.9485396,0,47.754682,-64.903143)"
       cx="23.895569"
       cy="3.9900031"
       fx="23.895569"
       fy="3.9900031"
       r="20.397499" />
    <linearGradient
       id="linearGradient3242">
      <stop
         id="stop3244"
         style="stop-color:#f8b17e;stop-opacity:1"
         offset="0" />
      <stop
         id="stop3246"
         style="stop-color:#e35d4f;stop-opacity:1"
         offset="0.26238" />
      <stop
         id="stop3248"
         style="stop-color:#c6262e;stop-opacity:1"
         offset="0.66093999" />
      <stop
         id="stop3250"
         style="stop-color:#690b54;stop-opacity:1"
         offset="1" />
    </linearGradient>
    <linearGradient
       inkscape:collect="always"
       xlink:href="#linearGradient2490"
       id="linearGradient3751"
       gradientUnits="userSpaceOnUse"
       gradientTransform="matrix(1.2533672,0,0,1.2533674,1.919184,3.919169)"
       x1="18.379412"
       y1="44.980297"
       x2="18.379412"
       y2="3.0816143" />
    <linearGradient
       id="linearGradient2490">
      <stop
         id="stop2492"
         style="stop-color:#791235;stop-opacity:1"
         offset="0" />
      <stop
         id="stop2494"
         style="stop-color:#dd3b27;stop-opacity:1"
         offset="1" />
    </linearGradient>
    <linearGradient
       y2="44.340794"
       x2="71.204407"
       y1="6.2375584"
       x1="71.204407"
       gradientTransform="matrix(1.3243242,0,0,1.3243242,-62.998438,0.4187934)"
       gradientUnits="userSpaceOnUse"
       id="linearGradient3288"
       xlink:href="#linearGradient4011"
       inkscape:collect="always" />
    <linearGradient
       id="linearGradient4011">
      <stop
         id="stop4013"
         style="stop-color:#ffffff;stop-opacity:1;"
         offset="0" />
      <stop
         offset="0.507761"
         style="stop-color:#ffffff;stop-opacity:0.23529412;"
         id="stop4015" />
      <stop
         id="stop4017"
         style="stop-color:#ffffff;stop-opacity:0.15686275;"
         offset="0.83456558" />
      <stop
         id="stop4019"
         style="stop-color:#ffffff;stop-opacity:0.39215687;"
         offset="1" />
    </linearGradient>
    <linearGradient
       id="linearGradient8838-1-3">
      <stop
         id="stop8840-3-6"
         style="stop-color:#000000;stop-opacity:1"
         offset="0" />
      <stop
         id="stop8842-2-1"
         style="stop-color:#000000;stop-opacity:0"
         offset="1" />
    </linearGradient>
    <radialGradient
       r="10.625"
       fy="4.625"
       fx="62.625"
       cy="4.625"
       cx="62.625"
       gradientTransform="matrix(2.9176471,0,0,0.988234,-150.71765,48.92941)"
       gradientUnits="userSpaceOnUse"
       id="radialGradient3027"
       xlink:href="#linearGradient8838-1-3"
       inkscape:collect="always" />
  </defs>
  <sodipodi:namedview
     id="base"
     pagecolor="#ffffff"
     bordercolor="#666666"
     borderopacity="1.0"
     inkscape:pageopacity="0.0"
     inkscape:pageshadow="2"
     inkscape:zoom="8.578125"
     inkscape:cx="32"
     inkscape:cy="32"
     inkscape:current-layer="layer1"
     showgrid="true"
     inkscape:document-units="px"
     inkscape:grid-bbox="true"
     inkscape:window-width="1280"
     inkscape:window-height="753"
     inkscape:window-x="0"
     inkscape:window-y="24"
     inkscape:window-maximized="1" />
  <metadata
     id="metadata3814">
    <rdf:RDF>
      <cc:Work
         rdf:about="">
        <dc:format>image/svg+xml</dc:format>
        <dc:type
           rdf:resource="http://purl.org/dc/dcmitype/StillImage" />
        <dc:title></dc:title>
      </cc:Work>
    </rdf:RDF>
  </metadata>
  <g
     id="layer1"
     inkscape:label="Layer 1"
     inkscape:groupmode="layer">
    <path
       inkscape:connector-curvature="0"
       style="opacity:0.3;fill:url(#radialGradient3027);fill-opacity:1;fill-rule:evenodd;stroke:none;stroke-width:0.99999988;marker:none;visibility:visible;display:inline;overflow:visible"
       id="path8836-1"
       d="m 63,53.499998 c 0,5.79899 -13.879175,10.5 -31,10.5 -17.120825,0 -31,-4.70101 -31,-10.5 0,-5.79899 13.879175,-10.5 31,-10.5 17.120825,0 31,4.70101 31,10.5 l 0,0 z" />
    <path
       style="fill:url(#radialGradient3749);fill-opacity:1;stroke:url(#linearGradient3751);stroke-width:1;stroke-linecap:round;stroke-linejoin:round;stroke-miterlimit:4;stroke-opacity:1;stroke-dasharray:none;stroke-dashoffset:0"
       d="M 32,8.5 C 17.930979,8.5 6.5,19.930978 6.5,34 6.5,48.069021 17.930979,59.500004 32,59.5 46.069016,59.5 57.500013,48.069021 57.5,34 57.5,19.930978 46.069016,8.5 32,8.5 z m 0,8 c 9.664983,0 17.5,7.835017 17.5,17.5 0,4.003037 -1.363551,7.676465 -3.625,10.625 L 23.40625,18.78125 C 25.946271,17.345074 28.873878,16.5 32,16.5 z M 18.125,23.375 40.59375,49.21875 C 38.053729,50.654926 35.126122,51.5 32,51.5 22.335017,51.5 14.5,43.664983 14.5,34 c 0,-4.003037 1.363551,-7.676465 3.625,-10.625 z"
       id="path2555-5" />
    <path
       d="M 22.639592,19.352537 45.160554,45.30098"
       id="path3270"
       style="opacity:0.4;fill:none;stroke:url(#linearGradient3755);stroke-width:0.99999988px;stroke-linecap:round;stroke-linejoin:miter;stroke-opacity:1"
       sodipodi:nodetypes="cc" />
    <path
       style="opacity:0.2;fill:none;stroke:url(#linearGradient3726);stroke-width:1;stroke-miterlimit:4;stroke-opacity:1;stroke-dasharray:none"
       id="path8655-9-6"
       d="M 17.783318,22.161738 C 15.10894,25.369939 13.5,29.497425 13.5,34.000656 13.5,44.217781 21.782874,52.5 32.000234,52.5 c 3.392049,0 6.571002,-0.913005 9.304433,-2.506699 m 4.993999,-4.253595 C 48.923863,42.546081 50.5,38.457453 50.5,34.000656 l 0,0 C 50.5,23.783059 42.216659,15.5 32.000234,15.5"
       sodipodi:nodetypes="cssccccs" />
    <path
       inkscape:connector-curvature="0"
       style="opacity:0.5;color:#000000;fill:none;stroke:url(#linearGradient3288);stroke-width:1;stroke-linecap:round;stroke-linejoin:round;stroke-miterlimit:4;stroke-opacity:1;stroke-dasharray:none;stroke-dashoffset:0;marker:none;visibility:visible;display:inline;overflow:visible;enable-background:accumulate"
       id="path8655-6"
       d="m 56.499999,33.999132 c 0,13.531412 -10.969831,24.500867 -24.49969,24.500867 -13.531097,0 -24.5003091,-10.969579 -24.5003091,-24.500867 0,-13.530787 10.9692121,-24.49913 24.5003091,-24.49913 13.529859,0 24.49969,10.968343 24.49969,24.49913 l 0,0 z" />
  </g>
</svg>

<?xml version="1.0" encoding="UTF-8" standalone="no"?>
<!-- Created with Inkscape (http://www.inkscape.org/) -->
<svg id="svg3809" xmlns:rdf="http://www.w3.org/1999/02/22-rdf-syntax-ns#" xmlns="http://www.w3.org/2000/svg" height="64px" width="64px" version="1.1" xmlns:cc="http://creativecommons.org/ns#" xmlns:xlink="http://www.w3.org/1999/xlink" xmlns:dc="http://purl.org/dc/elements/1.1/">
 <defs id="defs3811">
  <linearGradient id="linearGradient3726" y2="5.4676" gradientUnits="userSpaceOnUse" y1="-12.489" gradientTransform="matrix(2.1154 0 0 -2.1153 -99.577 26.573)" x2="63.397" x1="63.397">
   <stop id="stop4875-7-7" style="stop-color:#fff" offset="0"/>
   <stop id="stop4877-6-7" style="stop-color:#fff;stop-opacity:0" offset="1"/>
  </linearGradient>
  <linearGradient id="linearGradient3755" y2="45.074" gradientUnits="userSpaceOnUse" x2="24.481" gradientTransform="matrix(1.3077 0 0 1.3077 .61479 1.1391)" y1="5.0809" x1="24.481">
   <stop id="stop3783" style="stop-color:#fff" offset="0"/>
   <stop id="stop3785" style="stop-color:#fff;stop-opacity:0" offset="1"/>
  </linearGradient>
  <linearGradient id="linearGradient3690" y2="5.4676" gradientUnits="userSpaceOnUse" x2="63.397" gradientTransform="matrix(2.8014 0 0 2.8014 -142.25 43.835)" y1="-12.489" x1="63.397">
   <stop id="stop4875-7" style="stop-color:#fff" offset="0"/>
   <stop id="stop4877-6" style="stop-color:#fff;stop-opacity:0" offset="1"/>
  </linearGradient>
  <radialGradient id="radialGradient3749" gradientUnits="userSpaceOnUse" cy="3.99" cx="23.896" gradientTransform="matrix(0 2.9914 -3.9485 0 47.755 -64.903)" r="20.397">
   <stop id="stop3244" style="stop-color:#f8b17e" offset="0"/>
   <stop id="stop3246" style="stop-color:#e35d4f" offset=".26238"/>
   <stop id="stop3248" style="stop-color:#c6262e" offset=".66094"/>
   <stop id="stop3250" style="stop-color:#690b54" offset="1"/>
  </radialGradient>
  <linearGradient id="linearGradient3751" y2="3.0816" gradientUnits="userSpaceOnUse" x2="18.379" gradientTransform="matrix(1.2534 0 0 1.2534 1.9192 3.9192)" y1="44.98" x1="18.379">
   <stop id="stop2492" style="stop-color:#791235" offset="0"/>
   <stop id="stop2494" style="stop-color:#dd3b27" offset="1"/>
  </linearGradient>
  <radialGradient id="radialGradient3807" gradientUnits="userSpaceOnUse" cx="62.625" cy="4.625" r="10.625" gradientTransform="matrix(2.9176 0 0 .98823 -150.72 48.929)">
   <stop id="stop8840-3" offset="0"/>
   <stop id="stop8842-2" style="stop-opacity:0" offset="1"/>
  </radialGradient>
 </defs>
 <metadata id="metadata3814">
  <rdf:RDF>
   <cc:Work rdf:about="">
    <dc:format>image/svg+xml</dc:format>
    <dc:type rdf:resource="http://purl.org/dc/dcmitype/StillImage"/>
    <dc:title/>
   </cc:Work>
  </rdf:RDF>
 </metadata>
 <g id="layer1">
  <path id="path8836-1" style="opacity:.3;fill-rule:evenodd;fill:url(#radialGradient3807)" d="m63 53.5c0 5.799-13.879 10.5-31 10.5s-31-4.701-31-10.5 13.879-10.5 31-10.5 31 4.701 31 10.5z"/>
  <path id="path2555-5" style="stroke-linejoin:round;stroke:url(#linearGradient3751);stroke-linecap:round;fill:url(#radialGradient3749)" d="m32 8.5c-14.069 0-25.5 11.431-25.5 25.5s11.431 25.5 25.5 25.5 25.5-11.431 25.5-25.5-11.431-25.5-25.5-25.5zm0 8c9.665 0 17.5 7.835 17.5 17.5 0 4.003-1.3636 7.6765-3.625 10.625l-22.469-25.844c2.54-1.436 5.468-2.281 8.594-2.281zm-13.875 6.875 22.469 25.844c-2.54 1.436-5.468 2.281-8.594 2.281-9.665 0-17.5-7.835-17.5-17.5 0-4.003 1.3636-7.6765 3.625-10.625z"/>
  <path id="path8655-9" style="opacity:.4;stroke:url(#linearGradient3690);fill:none" d="m56.5 33.999c0 13.531-10.97 24.501-24.5 24.501-13.531 0-24.5-10.97-24.5-24.501s10.969-24.499 24.5-24.499c13.53 0 24.5 10.968 24.5 24.499z"/>
  <path id="path3270" style="opacity:.4;stroke:url(#linearGradient3755);stroke-linecap:round;stroke-width:1px;fill:none" d="m22.64 19.353 22.521 25.948"/>
  <path id="path8655-9-6" style="opacity:.2;stroke:url(#linearGradient3726);fill:none" d="m17.783 22.162c-2.674 3.208-4.283 7.335-4.283 11.839 0 10.217 8.283 18.499 18.5 18.499 3.392 0 6.571-0.913 9.3044-2.5067m4.994-4.2536c2.626-3.193 4.202-7.282 4.202-11.738 0-10.218-8.283-18.501-18.5-18.501"/>
 </g>
</svg>
